X:1
T:24 Italian Songs and Arias
T:Le Violette
T:Alessandro Scarlatti (1660-1725) Alessandro Parisotti (1853-1913)
T:Low voices Del opera Pirro e Demetrio Adriano Morselli (1600-1691)
T:Le Violette
T:Canzone
T:OpenScore (CC0)
T:OpenScore (CC0)
T:OpenScore (CC0)
T:OpenScore (CC0)
T:OpenScore (CC0)
C:Alessandro Scarlatti (1660-1725)
Z:Adriano Morelli (1600-1691)
Z:OpenScore (CC0)
%%score ( 1 2 ) ( 3 4 ) { ( 5 7 ) | ( 6 8 ) }
L:1/8
Q:1/4=92
M:4/4
K:Eb
V:1 treble nm="Voice"
V:2 treble 
V:3 treble nm="Alto"
V:4 treble 
V:5 treble nm="Piano"
V:7 treble 
V:6 bass 
V:8 bass 
V:1
"^Allegretto" z8 | z8 | z8 | z2 z E/ F/ G A B (A/G/) | F B, z2 z2 A A | A D z2 z2 F F | %6
w: |||Ru- gia- do- se, o- do- *|ro- se, vi- o-|let- te gra- zi-|
 F B, z2 z4 | z2 z E/ F/ G A B A/G/ | F B, B B B E A A | A D G G G C F F | F B, E E F E F E | %11
w: o- se,|Ru- gia- do- se, o- do- *|ro- se, vi- o- let- te gra- zi-|o- se, vi- o- let- te gra- zi-|o- se, Voi vi sta- te ver- go-|
 F E[Q:1/4=88] z2 z4 |[Q:1/4=87] z2 A G A G z2 | z2 A G A G F E | D B, z B/ A/ G F z2 | %15
w: gno- se,|mez- zoa- sco- se,|mez- zoa- sco- se fra- le|fo- glie, e sgri- da- te|
 z2 z B/ A/ G F z2 | z2 (B/A/) G c F A G | (A/G/) F z2 z4 | z2 z F/ E/ D B, z2 | %19
w: le mie vo- glie,|che _ son trop- poam- bi- zi-|o- * se,|e sgri- da- te|
 z2 z F/ E/ D B, z2 | z2 (F/E/) D[Q:1/4=84] G3 F/ E/ | %21
w: le mie vo- glie,|che _ son trop- po, son|
[Q:1/4=80] A/ G/ F/ G/[Q:1/4=76] (E>D) C2[Q:1/4=92] z2 | z4 z2 z E/ F/ | G A B (A/G/) F B, z2 | %24
w: trop- poam- bi- zi- o- * se.|Ru- gia-|do- se, o- do- * ro- se,|
[Q:1/4=90] z2 A A A D G G | G C F F F B, z2 | z2 F (B/F/) G F z2 | %27
w: vi- o- let- te, vi- o-|let- te gra- zi- o- se,|Ru- gia- * do- se,|
[Q:1/4=88] z2 F (B/F/) G F z F/ G/ | A G z[Q:1/4=84] F/ G/ A/ B/ G/ A/ F2 | %29
w: o- do- * ro- se vi- o-|let- te, vi- o- let- te gra- zi- o-|
 E2[Q:1/4=79]"^rit." z F/ G/ A/ B/[Q:1/4=76] G/ A/ F2 | E2[Q:1/4=92]"^a Tempo" z2 z4 | %31
w: se, vi- o- let- te gra- zi- o-|se,|
 z2 E E F E F E | F E z2 z4 | z2 A G A G z2 | z2 E E A G F E | F B, z B/ A/ G F z B/ A/ | %36
w: Voi vi sta- te ver- go-|gno- se,|mez- zoa- sco- se,|mez- zoa- sco- se, fra- le|fo- glie, e sgri- da- te le mie|
 G F (B/A/) G[Q:1/4=88] c F A G | (A/G/) F z2 z4 | z2 z F/ E/ D B (F/G/) (E/F/) | %39
w: vo- glie, che _ son trop- poam- bi- zi-|o- * se,|e sgri- da- te le _ mie _|
 D B (F/E/) D G3 F/ E/ |[Q:1/4=86] c/ A/ G/ F/[Q:1/4=84] (E>D) C2 z2 | z4 z2[Q:1/4=92] z E/ F/ | %42
w: vo- glie, che _ son trop- po, son|trop- poam- bi- zi- o- * se,|Ru- gia-|
 G A B (A/G/) F B, z2 | z2 A A A D G G | G C[Q:1/4=88] (F/G/) (E/F/) D B, z2 | %45
w: do- se, o- do- * ro- se,|vi- o- let- te, vi- o-|let- te gra- * zi- * o- se,|
 z2[Q:1/4=92] F (B/F/) G F z2 | z2 F (B/A/) G F z F/ G/ | A G z F/ G/ A/ B/[Q:1/4=88] G/ A/ F2 | %48
w: Ru- gia- * do- se,|o- do- * ro- se vi- o-|let- te, vi- o- let- te gra- zi- o-|
 E2 z F/ G/[Q:1/4=86]"^riten." A G z[Q:1/4=84] F/ G/ | %49
w: se, vi- o- let- te, vi- o-|
[K:Eb] (A/B/) (A/B/)[Q:1/4=80] (G/A/) (G/A/) (F-[Q:1/4=78]F/4G/4F/4E/4 F>E)[Q:1/4=74] | %50
w: let- * te _ gra- * zi- * o- * * * * * *|
 E2[Q:1/4=90]"_a tempo" z2 z4[Q:1/4=84]"_rit."[Q:1/4=72] |[Q:1/4=70] z8 |] %52
w: se!||
V:2
 x8 | x8 | x8 | x8 | x8 | x8 | x8 | x8 | x8 | x8 | x8 | x8 | x8 | x8 | x8 | x8 | x8 | x8 | x8 | %19
 x8 | x7 (F/E/) | (A/G/) (F/G/) x6 | x8 | x8 | x8 | x8 | x8 | x8 | x8 | x8 | x8 | x8 | x8 | x8 | %34
 x8 | x8 | x8 | x8 | x8 | x8 | x8 | x8 | x8 | x8 | x8 | x8 | x8 | x8 | x8 |[K:Eb] x8 | x8 | x8 |] %52
V:3
 z8 | z8 | z8 | z8 | z8 | z8 | z8 | z8 | z8 | z8 | z8 | z8 | z8 | z8 | z8 | z8 | z8 | z8 | z8 | %19
w: |||||||||||||||||||
 z8 | z8 | z8 | z8 | z8 | z8 | z8 | z8 | z8 | z8 | z8 | z8 | z8 | z8 | z2 A G A G E E | %34
w: ||||||||||||||mez- zoa- sco- se, fra- le|
 TE3 D/ E/ c/ d/ e/ d/ c/ B/ A/ G/ | F B, z2 z4 | z8 | z8 | z8 | z8 | z8 | z8 | z8 | z8 | z8 | %45
w: fo- \-- * * * * * * \-- * *|* glie,||||||||||
 z4 z2 F B | TB4{=AB} B,2 z F/ G/ | z8 | z8 |[K:Eb][K:treble] x4 (TF4 |{EF)} E2 z2 z4 | x8 |] %52
w: o- do-|ro- se vi- o-|||o-|se!||
V:4
 x8 | x8 | x8 | x8 | x8 | x8 | x8 | x8 | x8 | x8 | x8 | x8 | x8 | x8 | x8 | x8 | x8 | x8 | x8 | %19
 x8 | x8 | x8 | x8 | x8 | x8 | x8 | x8 | x8 | x8 | x8 | x8 | x8 | x8 | x8 | x8 | x8 | x8 | x8 | %38
 x8 | x8 | x8 | x8 | x8 | x8 | x8 | x8 | x8 | x8 | x8 |[K:Eb][K:treble] x4 F4 | x8 | x8 |] %52
V:5
!f! E,2 z .E/.F/ .[EG].[EA].[EB]([EA]/G/ | [DF]2) !>!B2 (!>!c4 | B3) .D .E.F.[EG].[DF] | %3
 E2 z2!p! .[EG].[EA].[EB].[EG] | [DF]2 .[DB].[DB] (!>![EB]E) .[CA].[CA] | %5
 [DA]D .[B,G].[B,G] (!>![CG]C) .[A,F].[A,F] | %6
 (!>![B,F]B,)!mf! [B,EB]([CA]/G/ [DF]/G/[CA]/G/ [DF]>)E | [G,E]2 z2!p! .[EG].[EA].[EB].[EG] | %8
 [DF]2 ([DB]2 E2) ([CA]2 | D2) ([B,G]2 C2) ([A,F]2 | B,2) z .B, .C.B,.C.B, | %11
 (CB,) z!f! .[Be] .[cf].[Be].[cf].[Be] | ([cf][Be])!p! .A.G (AG)!f! .[Aa].[Gg] | %13
 ([Aa][Gg])!p! [Ee]4 ([F-e]2 | [Fd]2) z [D-F] [EG][DF]!mf! z ([DB]/A/) | %15
 ([EG][DF]) z!p! [D-F] [EG][DF]!mf! z ([DB]/A/ | [EG][DF]!p! [B,E])[G,=E] F (!>!F2 E | %17
 [A,F])!mf!A ([FB]/A/[=EG] [CFc]).[_DF].[CFA].[CEG] | (A/G/F)!p! ([=A,C]2 [B,D]2)!f! z ([=Af]/e/ | %19
 [Bd]B)!p! ([=A,C]2 [B,D]2)!f! z ([=Af]/e/ | [Bd])B!p! B,2 CDEC | AF G2- [EG]3 F/E/ | %22
 A/G/F/G/ ([CE]>[=B,D]) C2 z2 |!p! .[EG].[EA].[EB].[EG] [DF]2 .[DB].[DB] | %24
 (!>![EB]E) .[CA].[CA] ([DA]D) .[B,G].[B,G] | ([CG]C) .C.E D2[K:bass]!mf! [D,F,]B,/F,/ | %26
 [E,G,][D,F,] z[K:treble]!p! [D-F] [EG][DF][K:bass]!mf! [D,F,]B,/F,/ | %27
 [E,G,][D,F,] z[K:treble]!p! [D-F] [EG][DF] ([DF]2 | [EA])G[CF][B,E] [A,D][G,E-][CE][B,D] | %29
 [G,E]2 [B,DF]2 A[E-G] F2 | [G,E]2!f! .[DB].[DB] .[EB][CA]/G/ TF>F | [G,E]2 z!p! .B, .C.B,.C.B, | %32
 (CB,) z!mf! .[Ee] .[Ff].[Ee].[Ff].[Ee] | ([Ff][Ee])!p! .[EA].G!<(! ([EA]G) .[Aea].[Gg]!<)! | %34
!>(! ([Aea][Gg]) .[cec']!>)!.[Bb] .[Aca]2 ([Fc]E | [B,D]2) !>!B,4 [Bb]2- | [Bb]2 E=E F F2 E | %37
!mf! [A,F]A ([FB]/A/[=EG] [CFc])[_DF] ([CFA][CEG] | [A,F]2)!p! ([=A,C]2 [B,=D]2) ([C=A]2 | %39
 B2) (B,2 C)DEG | [CA]2 (G2 C2)!mf! (GF/E/) | (.[Cc]/.A/.G/.F/) ([CE]>[=B,D]) C2 z2 | %42
 .[EG].[EA].[EB].[EG] [DF]2 .[DB].[DB] | (!>![EB]E) .[CA].[CA] ([DA]D) .[B,G].[B,G] | %44
 ([CG]C) .[F,C].[F,E] [F,D]2!mf! ([DF]B/F/) | %45
 ([EG][DF]) z[K:bass]!p! ([D,F,] [E,G,][D,F,])[K:treble] ([df]b/a/) | %46
 ([Beg][Bdf]) ([DF]B/A/) .[EG].[DF] z2 | AGFE D (E2 D) | E2 z2 AGFE | %49
[K:Eb] [A,D] z [G,E] z (E2 D2) |!f! [G,E]2 .[B,EB].[B,DB] (BA/G/ F>E) | [G,B,E]4- [G,B,E] z z2 |] %52
V:6
 [E,,,E,,]2 z2 .E,,.F,,.G,,.A,, | B,,2 .B,.B, (B,E,).A,.A, | (A,D,E,).F, .G,.A,.B,.B,, | %3
 [E,G,]2 z2 .E,,.F,,.G,,.A,, | B,,2 z/ .G,,/.A,,/.B,,/ (C,C,,) z/ .F,,/.G,,/.A,,/ | %5
 (B,,B,,,) z/ .E,,/.F,,/.G,,/ (A,,A,,,) z/ .D,,/.E,,/.F,,/ | %6
 G,,(G,,/F,,/ G,,).A,, .B,,.A,,.B,,.B,,, | .E,,.E,,, z2 .E,,.F,,.G,,.A,, | %8
 B,,2 z/ .G,,/.A,,/.B,,/ (C,C,,) z/ .F,,/.G,,/.A,,/ | %9
 (B,,B,,,) z/ .E,,/.F,,/.G,,/ (A,,A,,,) z/ .D,,/.E,,/.F,,/ | (G,,G,,,) z .G, .A,.G,.A,.G, | %11
 (A,G,) E,.[G,B,] .[A,C].[G,B,].[A,C].[G,B,] | ([A,C][G,B,]) .C,.B,, (C,B,,) .[C,E,].[B,,E,] | %13
 E,2 C,B,, C,B,,A,,=A,, | B,,2 !>!B,4 [B,,,B,,]2- | [B,,,B,,]2 !>!B,4 [B,,,B,,]2- | %16
 [B,,,B,,](B,,/A,,/ G,,)(C,/B,,/ A,,)B,,C,C,, | F,,F,/_E,/ (_D,C,/B,,/ A,,).B,,.C,.C,, | %18
 F,,2 ([F,,F,-]2 [B,,F,]2) ([F,C]2 | [B,D]2) F,4 ([F,C]2 | [B,D])(F,/E,/ D,)(G,/F,/ E,)=B,,C,E,, | %21
 F,,A,, G,,G,,, C,,C,E,C, | F,,A,,G,,F, [C,E,]2 z2 | .E,,.F,,.G,,.A,, B,,2 z/ .G,,/.A,,/.B,,/ | %24
 (C,C,,) z/ .F,,/.G,,/.A,,/ (B,,B,,,) z/ .E,,/.F,,/.G,,/ | (A,,A,,,) .A,,.=A,, B,,2 z [B,,,B,,] | %26
 [E,,B,,][B,,,B,,] B,,2- E,B,, z [B,,,B,,] | [E,,B,,][B,,,B,,] B,,2- E,B,, z B,, | %28
 C,B,,A,,G,, F,,E,,A,,B,, | C,2"^rit." z B,, A,,E,, B,,B,,, | %30
 E,,2 z/ (G,,/A,,/B,,/ C,)F,, B,,B,,, | E,,2 z .G, .A,.G,.A,.G, | %32
 (A,G,) .E,.[G,B,] .[A,C].[G,B,].[A,C].[G,B,] | ([A,C][G,B,]) .C,.B,, (C,B,,) .[C,E,].[B,,E,] | %34
 [C,E,][B,,E,] .A,,.G,, F,,G,,A,,=A,, | B,,2 z D,- E,D, z D- | ED z C,/B,,/ A,,B,,C,C,, | %37
 F,,F,/E,/ _D,C,/B,,/ A,,B,, C,C,, | F,,2 (F,2 B,,2) ([F,,F,-]2 | %39
 [B,,F,]2) (D,G,/F,/ E,)=B,,C,E,, | F,,2 G,,2 C,,C,E,C, | [F,,A,,]2 G,,F, [C,E,]2 z2 | %42
 .E,,.F,,.G,,.A,, B,,2 z/ .G,,/.A,,/.B,,/ | %43
 (C,C,,) z/ .F,,/.G,,/.A,,/ (B,,B,,,) z/ .E,,/.F,,/.G,,/ | (A,,A,,,) .A,,.=A,, B,,2 z [B,,F,] | %45
 ([E,G,][B,,F,]) B,,2 (E,,B,,)[K:treble] [B,F]2 | ([EG][B,F])[K:bass] B,,2 .[E,,E,].B,, z2 | %47
 C,B,,A,,G,, F,,E,,A,,B,, | C,C,, z2"^riten." D,E,A,,G,, | %49
[K:Eb]"^colla voce" F,,2 E,,2 [B,,,B,,]4 | [E,,B,,]2 z/ .E,,/.F,,/.G,,/ A,,F,, [B,,,B,,]2 | %51
 [E,,,E,,]4- [E,,,E,,] z z2 |] %52
V:7
 x8 | x2 z2 C2 F2- | FB,CD x3 z | x8 | x8 | x8 | x8 | x8 | x8 | x8 | x8 | x8 | x2 E2 E2 x2 | x8 | %14
 x8 | x8 | x4 F,_DCB, | x8 | [A,C]2 x6 | x8 | x8 | C2 [CE][=B,D] C3 F/E/ | .A,2 x6 | x8 | x8 | %25
 x6[K:bass] x2 | x3[K:treble] x3[K:bass] x2 | x3[K:treble] x3 B,2 | x8 | x4 [CE]B,- [B,E]>[A,D] | %30
 x6 [B,E][A,D] | x8 | x8 | x8 | x8 | x8 | x4 F._DCB, | x8 | x8 | .D4 x4 | x2 C=B, C2 x2 | x8 | x8 | %43
 x8 | x8 | B,2 x[K:bass] x3[K:treble] x2 | x8 | E2 CB, A,G,[F,C]B, | G,2 x2 B,2 CB, | %49
[K:Eb] x4 F,4 | x4 C2 [B,E][A,D] | x8 |] %52
V:8
 x8 | x8 | x8 | x8 | x8 | x8 | x8 | x8 | x8 | x8 | x8 | x8 | x8 | (C,B,,) x6 | x8 | x8 | x8 | x8 | %18
 x8 | x2 (F,,2 B,,2) x2 | x8 | x8 | x8 | x8 | x8 | x8 | x8 | x8 | x8 | x8 | x8 | x8 | x8 | x8 | %34
 x8 | x8 | x8 | x8 | x8 | x8 | x8 | x8 | x8 | x8 | x8 | x6[K:treble] x2 | x2[K:bass] x6 | x8 | x8 | %49
[K:Eb] x8 | x8 | x8 |] %52

